build/img/step3.svg

<svg width="132" height="143" viewBox="0 0 132 143" fill="none" xmlns="http://www.w3.org/2000/svg">
<path fill-rule="evenodd" clip-rule="evenodd" d="M66.5894 3C34.658 3 8.27876 26.4157 4.00243 56.8086H0.973633C5.27061 24.7313 33.0227 0 66.5894 0C86.2904 0 103.988 8.51934 116.117 22.0431H112.114V22.1527C100.621 10.3473 84.476 3 66.5894 3ZM119.638 31.5246C124.264 38.5748 127.491 46.6044 128.933 55.2284H131.974C130.61 46.6612 127.569 38.6469 123.193 31.5246H119.638ZM1.20511 75.7716H4.2456C4.88343 79.5863 5.87059 83.2847 7.17355 86.8334H3.9858C2.74777 83.2751 1.81082 79.5779 1.20511 75.7716ZM9.04491 97.8952C20.4405 117.673 41.9482 131 66.5894 131C98.4827 131 125.127 108.673 131.39 78.9321H128.319C122.107 106.985 96.8395 128 66.5894 128C43.6729 128 23.6161 115.94 12.537 97.8952H9.04491Z" fill="#F7D473"/>
<ellipse cx="97.0396" cy="123.477" rx="18.8882" ry="19" fill="#F7D473"/>
<path d="M96.696 129.14C96.0053 129.14 95.3287 129.042 94.666 128.846C94.0127 128.641 93.462 128.361 93.014 128.006L93.798 126.592C94.1527 126.881 94.582 127.115 95.086 127.292C95.59 127.469 96.1173 127.558 96.668 127.558C97.3213 127.558 97.83 127.427 98.194 127.166C98.558 126.895 98.74 126.531 98.74 126.074C98.74 125.626 98.572 125.271 98.236 125.01C97.9 124.749 97.3587 124.618 96.612 124.618H95.716V123.372L98.516 120.04L98.754 120.726H93.49V119.2H100.168V120.418L97.368 123.75L96.416 123.19H96.962C98.166 123.19 99.0667 123.461 99.664 124.002C100.271 124.534 100.574 125.22 100.574 126.06C100.574 126.611 100.434 127.119 100.154 127.586C99.874 128.053 99.4447 128.431 98.866 128.72C98.2967 129 97.5733 129.14 96.696 129.14Z" fill="#111111"/>
<g clip-path="url(#clip0_335_7)">
<path d="M95.4291 88.312L95.5551 82.124C95.5551 82.0826 95.5031 81.3846 95.3991 80.03C95.2951 78.6753 94.9511 77.1646 94.3671 75.498L91.0551 67.686H85.5551L82.1171 75.624C81.6171 77.208 81.3151 78.6766 81.2111 80.03C81.1071 81.3833 81.0551 82.0813 81.0551 82.124V84.186H77.9931C77.1598 84.186 76.4411 83.884 75.8371 83.28C75.2331 82.676 74.9311 81.9573 74.9311 81.124V76.748C77.4311 75.3306 79.4418 73.362 80.9631 70.842C82.4844 68.322 83.2451 65.52 83.2451 62.436V62.31C84.1624 62.0593 84.9018 61.57 85.4631 60.842C86.0244 60.114 86.3058 59.27 86.3071 58.31C86.3085 57.35 86.1831 56.5793 85.9311 55.998C85.6791 55.4166 85.4291 55 85.1811 54.748V52.06C85.1398 49.5186 84.6191 47.102 83.6191 44.81C82.6604 42.5593 81.3378 40.6006 79.6511 38.934C77.9644 37.2673 75.9958 35.934 73.7451 34.934C71.4531 33.9753 69.0364 33.496 66.4951 33.496C63.9538 33.496 61.5371 33.9753 59.2451 34.934C56.9944 35.934 55.0358 37.2673 53.3691 38.934C51.7025 40.6006 50.3691 42.5593 49.3691 44.81C48.4105 47.102 47.9311 49.5186 47.9311 52.06V54.748C47.7231 54.9986 47.4838 55.4153 47.2131 55.998C46.9425 56.5806 46.8071 57.3513 46.8071 58.31C46.8071 59.2686 47.0885 60.1226 47.6511 60.872C48.2138 61.6213 48.9531 62.1006 49.8691 62.31V62.436C49.8691 65.52 50.6298 68.312 52.1511 70.812C53.6725 73.312 55.6831 75.2913 58.1831 76.75V81.126C58.1831 81.9593 57.8811 82.678 57.2771 83.282C56.6731 83.886 55.9545 84.188 55.1211 84.188H49.9951V82.75C50.9951 82.1246 51.7558 81.3326 52.2771 80.374C52.7985 79.4153 53.0591 78.29 53.0591 76.998C53.0591 75.7473 52.6425 74.4973 51.8091 73.248C50.9758 71.9986 49.7258 71.2066 48.0591 70.872L46.8091 70.622V75.998H44.8711V70.622L43.5591 70.872C41.9751 71.2466 40.7565 72.0593 39.9031 73.31C39.0498 74.5606 38.6225 75.79 38.6211 76.998C38.6211 78.29 38.8711 79.4153 39.3711 80.374C39.8711 81.3326 40.6418 82.1246 41.6831 82.75V85.312C39.5578 86.2706 37.8285 87.75 36.4951 89.75C35.1618 91.75 34.4951 94 34.4951 96.5V97.5H36.5571V96.5C36.5571 93.792 37.4531 91.4693 39.2451 89.532C41.0371 87.5946 43.2458 86.5006 45.8711 86.25V97.5H47.9331V86.124H50.9951V97.5H53.0571V86.124H55.1191C55.2858 86.124 55.4731 86.1033 55.6811 86.062C55.8891 86.0206 56.1185 86 56.3691 86C56.8278 88.3746 58.0051 90.3746 59.9011 92C61.7971 93.6253 63.9951 94.438 66.4951 94.438C68.9951 94.438 71.1931 93.636 73.0891 92.032C74.9851 90.428 76.1624 88.4173 76.6211 86C76.7878 86.0413 76.9751 86.0726 77.1831 86.094C77.3911 86.1153 77.6204 86.126 77.8711 86.126H79.9331V97.502H81.9951V86.126H85.0571V97.502H87.1191V86.252C89.7444 86.5026 91.9531 87.6173 93.7451 89.596C95.5371 91.5746 96.4331 93.8766 96.4331 96.502V97.502H98.4951V96.502C98.4951 94.9606 98.2244 93.4813 97.6831 92.064C97.1418 90.6466 96.3918 89.3966 95.4331 88.314L95.4291 88.312ZM48.4291 81.126L47.9291 81.376V84.064H46.9291C46.3878 84.064 45.8671 84.0953 45.3671 84.158C44.8671 84.2206 44.3671 84.3146 43.8671 84.44V81.378L43.3051 81.128C42.4718 80.6693 41.8365 80.1066 41.3991 79.44C40.9618 78.7733 40.7431 77.9193 40.7431 76.878C40.7431 76.2526 40.9305 75.5966 41.3051 74.91C41.6798 74.2233 42.1798 73.6506 42.8051 73.192V77.942H48.9311V73.192C49.6391 73.5666 50.1598 74.098 50.4931 74.786C50.8265 75.474 50.9931 76.172 50.9931 76.88C50.9931 77.9213 50.7951 78.7966 50.3991 79.506C50.0031 80.2153 49.3471 80.7573 48.4311 81.132L48.4291 81.126ZM82.9911 57.438C83.1164 57.354 83.2418 57.26 83.3671 57.156C83.4924 57.052 83.6178 56.9373 83.7431 56.812C83.8271 56.9786 83.8998 57.1973 83.9611 57.468C84.0224 57.7386 84.0538 58.02 84.0551 58.312C84.0551 58.7293 83.9611 59.0833 83.7731 59.374C83.5851 59.6646 83.3244 59.9146 82.9911 60.124V57.438ZM65.4911 35.688V42.876H67.4911V35.688C69.6164 35.8133 71.6164 36.3133 73.4911 37.188C75.3244 38.0626 76.9391 39.2086 78.3351 40.626C79.7311 42.0433 80.8458 43.6893 81.6791 45.564C82.5124 47.4386 82.9498 49.4386 82.9911 51.564C81.1578 50.6053 78.5851 49.9386 75.2731 49.564C71.9611 49.1893 69.0338 49.002 66.4911 49.002C63.9485 49.002 61.0211 49.1893 57.7091 49.564C54.3971 49.9386 51.8245 50.6053 49.9911 51.564C50.0325 49.4386 50.4698 47.4386 51.3031 45.564C52.1365 43.6893 53.2511 42.0433 54.6471 40.626C56.0431 39.2086 57.6578 38.0626 59.4911 37.188C61.3658 36.3133 63.3658 35.8133 65.4911 35.688ZM49.9911 60.126C49.6578 59.918 49.3971 59.668 49.2091 59.376C49.0211 59.084 48.9271 58.73 48.9271 58.314C48.9271 58.022 48.9585 57.7406 49.0211 57.47C49.0838 57.1993 49.1565 56.9806 49.2391 56.814C49.3645 56.9393 49.4898 57.0433 49.6151 57.126C49.7405 57.2086 49.8658 57.3126 49.9911 57.438V60.126ZM49.9911 54.126C50.1165 53.5846 51.6165 52.9386 54.4911 52.188C57.3658 51.4373 61.3658 51.062 66.4911 51.062C71.6578 51.062 75.6891 51.4373 78.5851 52.188C81.4811 52.9386 82.9498 53.5846 82.9911 54.126C82.9911 55.126 81.5324 56.0533 78.6151 56.908C75.6978 57.7626 71.6558 58.19 66.4891 58.19C61.3225 58.274 57.2805 57.868 54.3631 56.972C51.4458 56.076 49.9871 55.128 49.9871 54.128L49.9911 54.126ZM52.0531 62.438V58.438C54.3451 59.2713 56.9705 59.8026 59.9291 60.032C62.8878 60.2613 65.0751 60.376 66.4911 60.376C67.9071 60.376 70.0944 60.282 73.0531 60.094C76.0118 59.906 78.6371 59.354 80.9291 58.438V62.438C80.9291 64.3966 80.5538 66.272 79.8031 68.064C79.0524 69.8146 78.0211 71.346 76.7091 72.658C75.3971 73.97 73.8658 75.0013 72.1151 75.752C70.3644 76.5026 68.4891 76.878 66.4891 76.878C64.4891 76.878 62.6138 76.5026 60.8631 75.752C59.1124 75.0013 57.5811 73.97 56.2691 72.658C54.9571 71.346 53.9258 69.8146 53.1751 68.064C52.4244 66.272 52.0491 64.3966 52.0491 62.438H52.0531ZM66.4911 92.376C64.3658 92.376 62.5325 91.6673 60.9911 90.25C59.4498 88.8326 58.5538 87.1033 58.3031 85.062C58.8871 84.6446 59.3765 84.072 59.7711 83.344C60.1658 82.616 60.3638 81.8346 60.3651 81V77.688C61.3238 78.0626 62.3131 78.3646 63.3331 78.594C64.3531 78.8233 65.4051 78.938 66.4891 78.938C67.5731 78.938 68.6251 78.834 69.6451 78.626C70.6651 78.418 71.6544 78.1053 72.6131 77.688V81C72.6131 81.8333 72.8004 82.594 73.1751 83.282C73.5498 83.97 74.0498 84.564 74.6751 85.064C74.4671 87.1053 73.5818 88.8346 72.0191 90.252C70.4564 91.6693 68.6124 92.378 66.4871 92.378L66.4911 92.376ZM85.9291 84.062H83.1171V82L83.2431 80.188C83.2431 80.188 83.5138 78.8753 84.0551 76.25L86.8671 69.624H87.2431V79.062C86.6591 79.27 86.1698 79.6346 85.7751 80.156C85.3804 80.6773 85.1824 81.292 85.1811 82C85.0971 82.4586 85.1391 82.8546 85.3071 83.188C85.4751 83.5213 85.6838 83.8133 85.9331 84.064L85.9291 84.062ZM88.2411 83.062C87.9904 83.062 87.7611 82.9473 87.5531 82.718C87.3451 82.4886 87.2411 82.2493 87.2411 82C87.2411 81.7506 87.3451 81.5213 87.5531 81.312C87.7611 81.1026 87.9904 80.9986 88.2411 81C88.4918 81.0013 88.7311 81.1053 88.9591 81.312C89.1871 81.5186 89.3018 81.748 89.3031 82C89.3045 82.252 89.1898 82.4913 88.9591 82.718C88.7284 82.9446 88.4891 83.0593 88.2411 83.062ZM93.3671 86.5C92.8671 86.1253 92.3044 85.7813 91.6791 85.468C91.0538 85.1546 90.4284 84.894 89.8031 84.686C90.2204 84.4353 90.5744 84.0706 90.8651 83.592C91.1558 83.1133 91.3018 82.582 91.3031 81.998C91.3031 81.29 91.1051 80.686 90.7091 80.186C90.3131 79.686 89.8444 79.3106 89.3031 79.06V69.622H89.6791L92.4911 76.122C92.9911 77.5806 93.2831 78.9246 93.3671 80.154L93.4931 81.998L93.3671 86.5ZM67.4911 63.438H76.8671V61.376H65.4911V71.752H67.4911V63.44V63.438ZM53.0531 46.938H55.1151V49H53.0531V46.938ZM57.3031 45.938H59.3031V47.938H57.3031V45.938Z" fill="white"/>
</g>
<defs>
<clipPath id="clip0_335_7">
<rect width="64" height="64" fill="white" transform="translate(34.4912 33.5)"/>
</clipPath>
</defs>
</svg>

<svg width="132" height="143" fill="none" xmlns="http://www.w3.org/2000/svg"><path fill-rule="evenodd" clip-rule="evenodd" d="M66.59 3C34.657 3 8.278 26.416 4.001 56.809H.974C5.27 24.73 33.023 0 66.589 0c19.701 0 37.399 8.52 49.528 22.043h-4.003v.11C100.621 10.347 84.476 3 66.589 3Zm53.048 28.525a61.722 61.722 0 0 1 9.295 23.703h3.041a64.65 64.65 0 0 0-8.781-23.703h-3.555ZM1.205 75.772h3.04a61.513 61.513 0 0 0 2.929 11.061H3.986a64.493 64.493 0 0 1-2.78-11.061Zm7.84 22.123C20.44 117.673 41.948 131 66.589 131c31.894 0 58.538-22.327 64.801-52.068h-3.071C122.107 106.985 96.839 128 66.589 128c-22.916 0-42.973-12.06-54.052-30.105H9.045Z" fill="#F7D473"/><ellipse cx="97.04" cy="123.477" rx="18.888" ry="19" fill="#F7D473"/><path d="M96.696 129.14a7.12 7.12 0 0 1-2.03-.294c-.653-.205-1.204-.485-1.652-.84l.784-1.414c.355.289.784.523 1.288.7a4.74 4.74 0 0 0 1.582.266c.653 0 1.162-.131 1.526-.392.364-.271.546-.635.546-1.092 0-.448-.168-.803-.504-1.064-.336-.261-.877-.392-1.624-.392h-.896v-1.246l2.8-3.332.238.686H93.49V119.2h6.678v1.218l-2.8 3.332-.952-.56h.546c1.204 0 2.105.271 2.702.812.607.532.91 1.218.91 2.058 0 .551-.14 1.059-.42 1.526-.28.467-.71.845-1.288 1.134-.57.28-1.293.42-2.17.42Z" fill="#111"/><g clip-path="url(#a)"><path d="m95.43 88.312.125-6.188c0-.041-.052-.74-.156-2.094-.104-1.355-.448-2.865-1.032-4.532l-3.312-7.812h-5.5l-3.438 7.938c-.5 1.584-.802 3.053-.906 4.406a180.571 180.571 0 0 0-.156 2.094v2.062h-3.062c-.833 0-1.552-.302-2.156-.906-.604-.604-.906-1.323-.906-2.156v-4.376c2.5-1.417 4.51-3.386 6.032-5.906 1.521-2.52 2.282-5.322 2.282-8.406v-.126c.917-.25 1.657-.74 2.218-1.468.561-.728.843-1.572.844-2.532.001-.96-.124-1.73-.376-2.312-.252-.581-.502-.998-.75-1.25V52.06a18.71 18.71 0 0 0-1.562-7.25c-.959-2.25-2.281-4.21-3.968-5.876-1.687-1.667-3.655-3-5.906-4a18.6 18.6 0 0 0-7.25-1.438 18.6 18.6 0 0 0-7.25 1.438c-2.25 1-4.21 2.333-5.876 4-1.666 1.667-3 3.625-4 5.876a18.601 18.601 0 0 0-1.438 7.25v2.688c-.208.25-.447.667-.718 1.25-.27.583-.406 1.353-.406 2.312 0 .959.282 1.813.844 2.562a3.73 3.73 0 0 0 2.218 1.438v.126c0 3.084.76 5.876 2.282 8.376 1.521 2.5 3.532 4.48 6.032 5.938v4.376c0 .833-.302 1.552-.906 2.156-.604.604-1.322.906-2.156.906h-5.126V82.75c1-.625 1.76-1.417 2.282-2.376.521-.959.782-2.084.782-3.376 0-1.25-.416-2.5-1.25-3.75-.833-1.25-2.083-2.041-3.75-2.376l-1.25-.25v5.376h-1.938v-5.376l-1.312.25c-1.584.375-2.802 1.187-3.656 2.438-.853 1.25-1.28 2.48-1.282 3.688 0 1.292.25 2.417.75 3.376.5.959 1.27 1.75 2.312 2.376v2.562c-2.125.959-3.855 2.438-5.188 4.438-1.333 2-2 4.25-2 6.75v1h2.062v-1c0-2.708.896-5.03 2.688-6.968 1.792-1.937 4-3.031 6.626-3.282V97.5h2.062V86.124h3.062V97.5h2.062V86.124h2.062c.167 0 .354-.02.562-.062.208-.041.438-.062.688-.062.459 2.375 1.636 4.375 3.532 6 1.896 1.625 4.094 2.438 6.594 2.438s4.698-.802 6.594-2.406 3.073-3.615 3.532-6.032c.167.041.354.073.562.094.208.021.437.032.688.032h2.062v11.376h2.062V86.126h3.062v11.376h2.062v-11.25c2.625.25 4.834 1.365 6.626 3.344 1.792 1.979 2.688 4.28 2.688 6.906v1h2.062v-1c0-1.541-.27-3.02-.812-4.438a12.122 12.122 0 0 0-2.25-3.75l-.004-.002Zm-47-7.186-.5.25v2.688h-1c-.542 0-1.063.031-1.563.094s-1 .157-1.5.282v-3.062l-.562-.25c-.833-.459-1.468-1.021-1.906-1.688-.437-.667-.656-1.52-.656-2.562 0-.625.188-1.281.562-1.968a5.181 5.181 0 0 1 1.5-1.718v4.75h6.126v-4.75c.708.375 1.229.906 1.562 1.594.334.688.5 1.386.5 2.094 0 1.041-.198 1.917-.594 2.626-.396.71-1.052 1.251-1.968 1.626l-.002-.006ZM82.99 57.438c.125-.084.25-.178.376-.282a5.51 5.51 0 0 0 .376-.344c.084.167.157.385.218.656.061.27.093.552.094.844 0 .417-.094.771-.282 1.062-.188.29-.449.54-.782.75v-2.686Zm-17.5-21.75v7.188h2v-7.188c2.125.125 4.125.625 6 1.5a17.035 17.035 0 0 1 4.844 3.438 16.546 16.546 0 0 1 3.344 4.938c.833 1.875 1.27 3.875 1.312 6-1.833-.959-4.406-1.625-7.718-2-3.312-.375-6.24-.562-8.782-.562s-5.47.187-8.782.562c-3.312.375-5.885 1.041-7.718 2 .041-2.125.479-4.125 1.312-6a16.548 16.548 0 0 1 3.344-4.938 17.035 17.035 0 0 1 4.844-3.438 16.331 16.331 0 0 1 6-1.5Zm-15.5 24.438a2.455 2.455 0 0 1-.782-.75c-.188-.292-.282-.646-.282-1.062a3.734 3.734 0 0 1 .312-1.5c.126.125.25.23.376.312.125.083.25.187.376.312v2.688Zm0-6c.126-.541 1.626-1.187 4.5-1.938 2.875-.75 6.875-1.126 12-1.126 5.167 0 9.198.375 12.094 1.126 2.896.75 4.365 1.397 4.406 1.938 0 1-1.459 1.927-4.376 2.782-2.917.855-6.96 1.282-12.126 1.282-5.167.084-9.209-.322-12.126-1.218-2.917-.896-4.376-1.844-4.376-2.844l.004-.002Zm2.062 8.312v-4c2.292.833 4.918 1.365 7.876 1.594 2.959.23 5.146.344 6.562.344 1.416 0 3.603-.094 6.562-.282 2.959-.188 5.584-.74 7.876-1.656v4c0 1.959-.375 3.834-1.126 5.626a14.524 14.524 0 0 1-3.094 4.594 14.523 14.523 0 0 1-4.594 3.094c-1.75.75-3.626 1.126-5.626 1.126-2 0-3.875-.375-5.626-1.126a14.523 14.523 0 0 1-4.594-3.094 14.524 14.524 0 0 1-3.094-4.594 14.417 14.417 0 0 1-1.126-5.626h.004Zm14.438 29.938c-2.125 0-3.959-.709-5.5-2.126-1.541-1.417-2.437-3.147-2.688-5.188.584-.417 1.074-.99 1.468-1.718.395-.728.593-1.51.594-2.344v-3.312c.959.375 1.948.677 2.968.906 1.02.23 2.072.344 3.156.344s2.136-.104 3.156-.312c1.02-.208 2.01-.52 2.968-.938V81c0 .833.187 1.594.562 2.282a5.84 5.84 0 0 0 1.5 1.782c-.208 2.041-1.093 3.77-2.656 5.188-1.563 1.417-3.407 2.126-5.532 2.126l.004-.002Zm19.438-8.314h-2.812V82l.126-1.812.812-3.938 2.812-6.626h.376v9.438a3.134 3.134 0 0 0-1.468 1.094c-.395.521-.593 1.136-.594 1.844-.084.459-.042.855.126 1.188.168.333.377.625.626.876l-.004-.002Zm2.312-1c-.25 0-.48-.115-.688-.344-.208-.23-.312-.469-.312-.718 0-.25.104-.479.312-.688.208-.21.437-.313.688-.312.25.001.49.105.718.312.228.207.343.436.344.688.002.252-.113.491-.344.718-.23.227-.47.341-.718.344Zm5.126 3.438c-.5-.375-1.063-.719-1.688-1.032a14.169 14.169 0 0 0-1.876-.782c.417-.25.771-.615 1.062-1.094.29-.479.437-1.01.438-1.594 0-.708-.198-1.312-.594-1.812a3.84 3.84 0 0 0-1.406-1.126v-9.438h.376l2.812 6.5c.5 1.459.792 2.803.876 4.032l.126 1.844-.126 4.502ZM67.491 63.438h9.376v-2.062H65.491v10.376h2v-8.314Zm-14.438-16.5h2.062V49h-2.062v-2.062Zm4.25-1h2v2h-2v-2Z" fill="#fff"/></g><defs><clipPath id="a"><path fill="#fff" transform="translate(34.491 33.5)" d="M0 0h64v64H0z"/></clipPath></defs></svg>
